X:27
T:Jacks Alive. JBs.027
S:Jas.Blackshaw MS, 1837, N.Shropshire
Z:Tony Weatherall 2006
M:2/4
L:1/8
Q:1/4=100
A:North Shropshire
R:Country Dance
K:C
G|cc dd|ec d/B/A/G/|cc dd|e/d/c/B/ c:|!
|:g|câ€™câ€™ bb|aa bg|aa bg|ab câ€™2|!
câ€™câ€™ bb|acâ€™ bg|cc dd|e/d/c/B/ c:|

